X: 683
T: Zou luoyang
%%abc-version 2.0
%%abcx-abcm2ps-target-version 5.9.1 (29 Sep 2008)
%%abc-creator hum2abc beta
%%abcx-conversion-date 2013/10/02 07:52:30
%%abc-edited-by Helmut Schaffrath
%%humdrum-veritas 2976838064
%%humdrum-veritas-data 1429417912
%%continueall 1
%%barnumbers 0
L: 1/16
M: 2/4
K: G
d2 d2 B2 A B [I:setbarnb 1]| 
d2 A Bd4 | 
G2 G A d e d B | 
A B A ED4 | 
G2> A2 d e d B | 
d2 A B A2 E2 | 
G2 G A G E D A, | 
D8 |]  



